assets/addon-icon.svg

<?xml version="1.0" encoding="UTF-8" standalone="no"?>
<svg
   height="256"
   width="256"
   viewBox="0 0 240.00068 239.99986"
   version="1.1"
   id="svg1"
   sodipodi:docname="addon-icon.svg"
   inkscape:version="1.4.2 (ebf0e940d0, 2025-05-08)"
   inkscape:export-filename="addon-icon.png"
   inkscape:export-xdpi="96"
   inkscape:export-ydpi="96"
   xmlns:inkscape="http://www.inkscape.org/namespaces/inkscape"
   xmlns:sodipodi="http://sodipodi.sourceforge.net/DTD/sodipodi-0.dtd"
   xmlns="http://www.w3.org/2000/svg"
   xmlns:svg="http://www.w3.org/2000/svg">
  <defs
     id="defs1" />
  <sodipodi:namedview
     id="namedview1"
     pagecolor="#ffffff"
     bordercolor="#000000"
     borderopacity="0.25"
     inkscape:showpageshadow="2"
     inkscape:pageopacity="0.0"
     inkscape:pagecheckerboard="0"
     inkscape:deskcolor="#d1d1d1"
     inkscape:zoom="1.4504018"
     inkscape:cx="161.3346"
     inkscape:cy="167.19505"
     inkscape:window-width="1528"
     inkscape:window-height="928"
     inkscape:window-x="0"
     inkscape:window-y="0"
     inkscape:window-maximized="0"
     inkscape:current-layer="svg1"
     inkscape:export-bgcolor="#ffffffff" />
  <path
     d="M 36.737699,20.205943 C 26.911906,26.040095 7.5531768,48.279636 7.3695685,54.111951 v 9.654118 c 0,12.237487 11.4387905,22.993254 21.8245875,22.993254 12.470669,0 22.861056,-10.335304 22.861974,-22.602168 0,12.266864 10.034188,22.602168 22.505775,22.602168 12.472504,0 22.184459,-10.335304 22.184459,-22.602168 0,12.266864 10.669466,22.602168 23.141056,22.602168 h 0.22584 c 12.47251,0 23.14197,-10.335304 23.14197,-22.602168 0,12.266864 9.71287,22.602168 22.18355,22.602168 12.47158,0 22.50577,-10.335304 22.50577,-22.602168 0,12.266864 10.39223,22.602168 22.86198,22.602168 10.38579,0 21.82458,-10.753931 21.82458,-22.993254 v -9.654118 c -0.18361,-5.833232 -19.54233,-28.073693 -29.36629,-33.906008 -30.53955,-1.072272 -51.71141,-1.257715 -83.2654,-1.253125 -31.553064,0.0028 -74.570628,0.495742 -83.263558,1.253125 z m 59.850762,60.789919 c -1.192448,2.078693 -2.66947,3.980591 -4.388236,5.650542 -4.707714,4.603057 -11.160623,7.456329 -18.274523,7.456329 -6.845537,0.0064 -13.420596,-2.671992 -18.313081,-7.460001 -1.70572,-1.670835 -3.001994,-3.457342 -4.189021,-5.537623 l -0.0055,0.0037 c -1.18611,2.083952 -2.838583,3.869542 -4.547975,5.542212 -4.894357,4.784488 -11.468666,7.460617 -18.313081,7.454493 -0.857451,0 -1.749786,-0.236854 -2.471367,-0.484725 -1.0025,10.439971 -1.425717,20.417231 -1.575358,27.691781 l -0.0018,0.0414 c -0.01836,3.69419 -0.03672,6.73199 -0.05508,10.95222 0.192788,21.90446 -2.169331,70.99578 9.65779,83.05792 18.32777,4.27349 52.052923,6.21973 85.887321,6.23167 h 0.006 c 33.83348,-0.0119 67.55864,-1.95818 85.8864,-6.23167 11.82713,-12.06305 9.465,-61.15438 9.65779,-83.05884 -0.0202,-4.21931 -0.0367,-7.25711 -0.0551,-10.95222 l -0.003,-0.0413 c -0.14872,-7.2764 -0.57194,-17.25275 -1.57444,-27.692708 -0.72158,0.247871 -1.61299,0.484726 -2.47137,0.484726 -6.84441,0.0062 -13.41872,-2.670005 -18.31308,-7.454492 -1.70939,-1.672671 -3.36186,-3.457343 -4.54888,-5.542214 l -0.006,-0.0037 c -1.18794,2.080281 -2.4833,3.867707 -4.18902,5.537623 -4.89229,4.787617 -11.46704,7.465702 -18.31216,7.459083 -7.11298,0 -13.56681,-2.855108 -18.27452,-7.457247 -1.71877,-1.669951 -3.19579,-3.571849 -4.38824,-5.650541 -1.17967,2.0764 -2.64303,3.978216 -4.34784,5.650541 -4.89368,4.787112 -11.46916,7.464768 -18.31492,7.458165 -0.24787,0 -0.49575,-0.01102 -0.74361,-0.01836 h -0.007 c -0.24787,0.0074 -0.49574,0.01836 -0.74637,0.01836 -6.84562,0.0069 -13.4211,-2.67047 -18.31491,-7.457246 -1.704798,-1.672342 -3.168156,-3.574155 -4.347844,-5.650543 z"
     color="#000000"
     fill="#fff"
     id="path1"
     style="fill:#fa5c5c;fill-opacity:1;stroke-width:0.918041"
     sodipodi:nodetypes="ccsscscsscscssccccccccccccccccccssccccccccccccccccccccc" />
  <path
     id="path2"
     style="fill:#fa5c5c;fill-opacity:1;stroke:#ffffff;stroke-width:7.74599;stroke-linecap:round;stroke-linejoin:miter;stroke-dasharray:none;stroke-opacity:1"
     d="m 120.00033,114.59175 -55.095309,74.01022 h 37.808759 v 66.76227 h 6.72147 21.1263 6.72531 v -66.76227 h 37.80879 z" />
</svg>

<?xml version="1.0" encoding="UTF-8" standalone="no"?>
<svg
   height="256"
   width="256"
   viewBox="0 0 240.00068 239.99986"
   version="1.1"
   id="svg1"
   sodipodi:docname="addon-icon.svg"
   inkscape:version="1.4.4 (dcaf3e7d9e, 2026-05-05)"
   inkscape:export-filename="addon-icon.png"
   inkscape:export-xdpi="96"
   inkscape:export-ydpi="96"
   xmlns:inkscape="http://www.inkscape.org/namespaces/inkscape"
   xmlns:sodipodi="http://sodipodi.sourceforge.net/DTD/sodipodi-0.dtd"
   xmlns="http://www.w3.org/2000/svg"
   xmlns:svg="http://www.w3.org/2000/svg">
  <defs
     id="defs1" />
  <sodipodi:namedview
     id="namedview1"
     pagecolor="#ffffff"
     bordercolor="#000000"
     borderopacity="0.25"
     inkscape:showpageshadow="2"
     inkscape:pageopacity="0.0"
     inkscape:pagecheckerboard="0"
     inkscape:deskcolor="#d1d1d1"
     inkscape:zoom="2.0511779"
     inkscape:cx="73.616238"
     inkscape:cy="221.33624"
     inkscape:window-width="2550"
     inkscape:window-height="1400"
     inkscape:window-x="0"
     inkscape:window-y="0"
     inkscape:window-maximized="0"
     inkscape:current-layer="svg1"
     inkscape:export-bgcolor="#ffffffff" />
  <path
     id="path1"
     style="fill:#fa5c5c;fill-opacity:1;stroke-width:0.918041"
     d="M 119.99851 18.952891 C 88.446138 18.955691 45.430802 19.447981 36.736554 20.205336 C 26.910416 26.040495 7.5536174 48.278974 7.370016 54.111071 L 7.370016 63.76625 C 7.370016 76.003737 18.808622 86.758869 29.194419 86.758869 C 41.665088 86.758869 52.056114 76.42313 52.057032 64.156266 C 52.057032 76.42313 62.091002 86.758869 74.562589 86.758869 C 87.035093 86.758869 96.74588 76.42313 96.74588 64.156266 C 96.74588 76.42313 107.41522 86.758869 119.88681 86.758869 L 120.11387 86.758869 C 132.58638 86.758869 143.2548 76.42313 143.2548 64.156266 C 143.2548 76.42313 152.96741 86.758869 165.43809 86.758869 C 177.90967 86.758869 187.94365 76.42313 187.94365 64.156266 C 187.94365 76.42313 198.33651 86.758869 210.80626 86.758869 C 221.19205 86.758869 232.63066 76.005573 232.63066 63.76625 L 232.63066 54.111071 C 232.44705 48.277839 213.08809 26.037651 203.26413 20.205336 C 172.72458 19.133064 151.5525 18.948301 119.99851 18.952891 z M 96.590239 80.992861 L 96.588408 80.996524 C 95.39596 83.075217 93.918124 84.977223 92.199358 86.647174 C 87.491644 91.250231 81.03928 94.10325 73.92538 94.10325 C 67.079843 94.10965 60.505436 91.431521 55.612951 86.643512 C 53.907231 84.972677 52.610513 83.184837 51.423486 81.104556 L 51.417992 81.108218 C 50.231882 83.19217 48.579032 84.978166 46.86964 86.650836 C 41.975283 91.435324 35.401625 94.111205 28.55721 94.105081 C 27.699759 94.105081 26.80686 93.869552 26.085279 93.621681 C 25.082779 104.06165 24.660208 114.03825 24.510567 121.3128 L 24.508736 121.35308 C 24.490376 125.04727 24.472165 128.08625 24.453805 132.30648 C 24.646593 154.21094 22.283693 203.30122 34.110814 215.36336 C 48.043395 218.61202 70.874749 220.51688 95.887112 221.24839 L 95.887112 197.54715 L 73.445643 197.54715 C 65.62803 197.54589 61.153442 188.6352 65.821109 182.364 L 112.37581 119.82598 C 113.5597 118.23616 115.21055 117.0565 117.09811 116.45134 C 120.96789 115.21081 125.19771 116.56668 127.62487 119.82598 L 174.1814 182.364 C 178.8496 188.63592 174.37355 197.5475 166.55504 197.54715 L 144.11357 197.54715 L 144.11357 221.24839 C 169.12654 220.51694 191.95864 218.61213 205.8917 215.36336 C 217.71883 203.30031 215.35592 154.20911 215.54871 132.30465 C 215.52851 128.08534 215.51217 125.04819 215.49377 121.35308 L 215.49011 121.31097 C 215.34139 114.03457 214.9179 104.05981 213.9154 93.61985 C 213.19382 93.867721 212.30368 94.10325 211.4453 94.10325 C 204.60089 94.10945 198.0254 91.433492 193.13104 86.649005 C 191.42165 84.976334 189.76971 83.191258 188.58269 81.106387 L 188.57719 81.102725 C 187.38925 83.183006 186.09345 84.971765 184.38773 86.641681 C 179.49544 91.429298 172.92042 94.106207 166.0753 94.099588 C 158.96232 94.099588 152.50903 91.245651 147.80132 86.643512 C 146.08255 84.973561 144.60472 83.071553 143.41227 80.992861 C 142.2326 83.069261 140.77015 84.971187 139.06534 86.643512 C 134.17166 91.430624 127.59683 94.108022 120.75107 94.101419 C 120.5032 94.101419 120.25369 94.090449 120.00583 94.083109 L 120.00034 94.083109 C 119.75247 94.090509 119.5039 94.101419 119.25327 94.101419 C 112.40765 94.108319 105.83282 91.430288 100.93901 86.643512 C 99.234206 84.97117 97.769927 83.069249 96.590239 80.992861 z M 120.00034 125.50226 L 73.445643 188.04028 L 105.39398 188.04028 L 105.39398 225.39391 A 14.60702 14.60702 0 0 0 120.00034 240.00027 A 14.60702 14.60702 0 0 0 134.6067 225.39391 A 14.60702 14.60702 0 0 0 134.6067 225.38841 L 134.6067 188.04028 L 166.55504 188.04028 L 120.00034 125.50226 z " />
  <g
     id="path2"
     style="opacity:1" />
</svg>
